assets/img/search-gray.svg

<svg height="32" viewBox="0 0 31 32" width="31" xmlns="http://www.w3.org/2000/svg"><path d="m18.8056157 23.3840749c-4.7601975 2.7191278-10.97311355 2.0109076-15.0851115-2.1010903-4.91450858-4.9145086-4.9670098-12.83000011-.11726475-17.67974515 4.84974504-4.84974505 12.76523655-4.79724383 17.67974515.11726475 4.7237837 4.72378375 4.9556121 12.2201428.6597516 17.1016134l8.1283965 8.2369432-2.8326581 2.8704854zm.6878112-3.890648c3.8105139-3.810514 3.769263-10.02982877-.0921366-13.89122837s-10.0807144-3.90265056-13.89122837-.0921366c-3.81051396 3.81051397-3.769263 10.02982877.0921366 13.89122837s10.08071437 3.9026505 13.89122837.0921366z" fill="#c1c2c2"/></svg>

<?xml version="1.0" encoding="UTF-8"?>
<svg width="31px" height="32px" viewBox="0 0 31 32" version="1.1" xmlns="http://www.w3.org/2000/svg" xmlns:xlink="http://www.w3.org/1999/xlink">
    <!-- Generator: Sketch 52.6 (67491) - http://www.bohemiancoding.com/sketch -->
    <title>search</title>
    <desc>Created with Sketch.</desc>
    <g id="Welcome" stroke="none" stroke-width="1" fill="none" fill-rule="evenodd">
        <path d="M18.8056157,23.3840749 C14.0454182,26.1032027 7.83250215,25.3949825 3.7205042,21.2829846 C-1.19400438,16.368476 -1.2465056,8.45298449 3.60323945,3.60323945 C8.45298449,-1.2465056 16.368476,-1.19400438 21.2829846,3.7205042 C26.0067683,8.44428795 26.2385967,15.940647 21.9427362,20.8221176 L30.0711327,29.0590608 L27.2384746,31.9295462 L18.8056157,23.3840749 Z M19.4934269,19.4934269 C23.3039408,15.6829129 23.2626899,9.46359813 19.4012903,5.60219853 C15.5398907,1.74079893 9.3205759,1.69954797 5.51006193,5.51006193 C1.69954797,9.3205759 1.74079893,15.5398907 5.60219853,19.4012903 C9.46359813,23.2626899 15.6829129,23.3039408 19.4934269,19.4934269 Z" id="search" fill="#C1C2C2" fill-rule="nonzero"></path>
    </g>
</svg>
